icon/cg/arrows-expand-left.svg

<svg viewBox="0 0 24 24" fill="none" xmlns="http://www.w3.org/2000/svg" height="1em" width="1em">
  <path d="M10.1005 4.10052V2.10052H2.10046L2.10046 10.1005H4.10046L4.10046 5.51471L9.87875 11.293L11.293 9.87878L5.51471 4.10052H10.1005Z" fill="currentColor"/>
  <path d="M19.8995 13.8995H21.8995V21.8995H13.8995V19.8995H18.4853L12.7071 14.1212L14.1213 12.707L19.8995 18.4853V13.8995Z" fill="currentColor"/>
</svg>

<svg width="24" height="24" fill="none" xmlns="http://www.w3.org/2000/svg"><path d="M10.1 4.1v-2h-8v8h2V5.516l5.779 5.778 1.414-1.414L5.515 4.1H10.1ZM19.9 13.9h2v8h-8v-2h4.585l-5.778-5.779 1.414-1.414 5.778 5.778V13.9Z" fill="currentColor"/></svg>
